packages/foundations/assets/icons/functional/images/communication/chat_12.svg

<svg width="12" height="12" viewBox="0 0 12 12" fill="none" xmlns="http://www.w3.org/2000/svg">
<g clip-path="url(#clip0_2204_2156)">
<path fill-rule="evenodd" clip-rule="evenodd" d="M1.20001 10.2614C1.20001 10.5659 1.50439 10.7766 1.79707 10.7766C1.94929 10.7766 2.08975 10.7297 2.20681 10.6127L3.61171 9.19607C3.72877 9.06731 3.95125 9.02339 4.08001 9.02339H9.37171C10.1444 9.02339 10.8 8.28293 10.8 7.49855V2.60489C10.8 1.85561 10.1093 1.22339 9.31321 1.22339H2.74537C1.85563 1.22339 1.20001 1.91411 1.20001 2.69855V10.2614ZM2.40589 8.73953L2.40001 2.42339H9.60001V7.82339H3.99805C3.51805 7.82339 3.14341 8.00195 2.81563 8.32973L2.40589 8.73953ZM3.60001 5.42339V6.62339H8.40001V5.42339H3.60001ZM3.60001 3.62339V4.82339L8.40001 4.81757V3.62339H3.60001Z" fill="#1A1C1F"/>
</g>
<defs>
<clipPath id="clip0_2204_2156">
<rect width="12" height="12" fill="white"/>
</clipPath>
</defs>
</svg>

<svg xmlns="http://www.w3.org/2000/svg" width="12" height="12" fill="none"><g clip-path="url(#a)"><path fill="#1A1C1F" fill-rule="evenodd" d="M1.2 10.261c0 .305.304.516.597.516a.56.56 0 0 0 .41-.164l1.405-1.417c.117-.129.34-.173.468-.173h5.292c.772 0 1.428-.74 1.428-1.524V2.605c0-.75-.69-1.382-1.487-1.382H2.745c-.89 0-1.545.691-1.545 1.476zM2.406 8.74 2.4 2.423h7.2v5.4H3.998c-.48 0-.855.179-1.182.507zM3.6 5.423v1.2h4.8v-1.2zm0-1.8v1.2l4.8-.005V3.623z" clip-rule="evenodd"/></g><defs><clipPath id="a"><path fill="#fff" d="M0 0h12v12H0z"/></clipPath></defs></svg>
